X:39
T:Two-Fifty To Vigo
M:4/4
L:1/8
K:B minor
fBBA BdFG-|GBdB Aceg|fBBA BdFG-|GBBd cBBA|!
fBBA BdFG-|GBdB Ac (3efg|fBBA BdFG-|GBfe defg||!
affe decd-|decd ed (3cBA|affe decd-|dfab fee2|!
affe decd-|decd ed (3cBA|fBz A Bdcd-|decd ed (3cBA||!
cFFc dGGd|cF (3edc dBB2|cFFc dGGd|cf (3edc dBB2|!
cFFc dGGd|cF (3edc dBB2|cFFc dGGd|cf (3edc defg||!
decd-|decd ed (3cBA|affe decd-|dfab fee2|!
affe decd-|decd ed (3cBA|fBBA Bdcd-|decd ed (3cBA||!
%%and 2nd part variation
N:affd caBc-|cABc dcBA|affd caBc-|cfab fee2|

